X:1
T:Sancte Michael
T:Sancte Michael
T:François de Layolle
T:Source : Trium vocum cantiones---Nürnberg---J.Petreius---1541. Editor : André Vierendeels (23/04/16).
T:Notes : Original clefs : C3 (from m1 to m11: C2), C3, F3 Edirorial accidentals above the staff Original note values have been halved Square brackets indicate ligatures
T:©
T:©
T:©
T:©
T:©
C:François de Layolle
Z:©
%%score [ 1 2 3 ]
L:1/8
Q:1/4=90
M:2/2
K:C
V:1 treble-8 nm="Tenor 1" snm="T 1"
V:2 treble-8 nm="Tenor 2" snm="T 2"
V:3 bass nm="Bass" snm="B"
V:1
 g6 c2 | g4 a4 | g4 z2 f2 | g2 a3 gfe | d2 e2 d2 e2- | ed g4 f2 | g4 g4 | a4 a4 | g4 g4 | g4 g4 | %10
w: San- cte|Mi- cha-|el, San-|cte Mi- * * *||* * * cha-|el ar-|chan- ge-|le Do-|mi- ni|
 a8 | g4 e4 | f4 f4 | e4 g4 | a4 a4 | !fermata!g8 | g8 | a4 a4 | g4 e4 | d2 e4 dc | B3 A G2 F2 | %21
w: no-|stri Ie-|su Chri-|sti, Ie-|su Chri-|sti.|Ve-|ni in|ad- iu-|to- * * *||
 A4 G4 | z4 g4 | f2 g4 fe | d3 c de f2- | fedc d4 | c8 | z4 d4 | e8 | d8 | z4 e3 e | f2 f2 f4 | %32
w: ri- um|po-|pu- lo _ _|_ _ _ _ _|* * * * De-|i,|De-||i,|glo- ri-|o- sus e-|
 e8 | z2 e2 e2 e2 | g6 f2 | e4 c4 | d8 | c8 | c4 d4 | e4 g4- | g2 d3 e f2- | fe c2 d2 d2 | %42
w: nim,|glo- ri- o-|sus ap-|pa- ru-|i-|sti|in con-|spe- ctu|_ Do- * *|* * * * mi-|
 cdef g2 a2- | af a4 gf | e3 d c2 B2 | A2 G2 F4 | G4 c4- | c2 BA B2 A2- | AB c4 B2 | c4 z4 | %50
w: ni, _ _ _ _ Do-|||* * mi-|ni, Do-||* * * mi-|ni,|
 z2 c2 c2 c2 | d2 e2 f4 | e8- | e4 z2 A2 | e3 f g3 a | f4 e4- | e8 | z2 g2 g2 g2 | a4 g4 | e4 f4 | %60
w: pro- pte- re-|a de- co-|re|_ in-|du- it te _|De- us,|_|ve- ni in|ad- iu-|to- *|
 e2 g3 f e2- | e2 dc d4 | e4 g4 | f2 g4 fe | d3 c de f2- | fedc d4 | c4 e4 | d2 e4 dc | %68
w: |* * * ri-|um po-|pu- lo _ _|_ _ _ _ _|* * * * De-|i, po-|pu- lo _ _|
 BAGA Bc d2- | dc c4 B2 | c8- | c8 |] %72
w: _ _ _ _ _ _ _|* * De- *|i.|_|
V:2
 z8 | c6 F2 | c4 d4 | c4 A4 | B2 c2 B2 c2- | c2 B2 c4 | d4 e4 | c4 d4 | e4 e4 | d2 e3 dcB | %10
w: |San- cte|Mi- cha-|el, San-|cte Mi- * *|* * cha-|el ar-|chan- ge-|le Do-|mi- * * * *|
 A2 B2 c2 d2 | e2 g3 f e2- | e2 dc d4 | e6 d2 | c4 d4 | !fermata!e8 | e8 | f4 f4 | e4 g4 | %19
w: |ni no- * *|* * * stri|Ie- su|Chri- *|sti.|Ve-|ni in|ad- iu-|
 f2 g2 g2 fe | d6 f2- | fedc d2 d2 | c4 e4 | d2 e4 dc | BAGA Bc d2- | dc c4 B2 | c4 g4 | a8 | g8 | %29
w: to- * * * *||* * * * * ri-|um po-|pu- lo _ _|_ _ _ _ _ _ _|* * De- *|i, De-||i,|
 z4 g4 | e4 g4 | a4 a4 | g2 G2 B2 A2 | B4 c4 | B8 | cdef g2 a2- | af a4 gf | e3 d c2 B2 | %38
w: glo-|ri- o-|sus e-|nim ap- pa- ru|i- *|sti,|ap- * * * * pa-|* ru- i- * *||
 A2 G2 F4 | G4 c4 | c2 BA B2 A2- | AB c4 B2 | c4 c4 | d8 | c8 | c4 d4 | e4 g4- | g2 d3 e f2- | %48
w: |sti in|con- * * spec- tu|_ _ Do- mi-|ni, Do-|mi-|ni,|in con-|spe- ctu|_ Do- * *|
 fe c2 d4 | c4 B4 | A3 G F2 E2 | A2 G2 F4 | G4 z2 G2 | B3 c d3 e | c4 B4 | z2 c2 c2 c2 | %56
w: * * * mi-|ni, pro-|pte- re- a de-|co- * *|re in-|du- * * *|it te,|ve- ni in|
 c2 G2 B2 A2 | G4 z2 c2 | ABcd ef g2- | gf e4 d2 | e4 g4 | a4 a4 | g4 e4 | d2 e4 dc | B3 A G2 F2 | %65
w: ad- iu- to- ri-|um po-||* * * pu-|lo, po-|pu- lo|De- *|||
 A4 G4 | z4 g4 | f2 g4 fe | d3 c de f2- | fedc d4 | c2 G2 A4 | G8 |] %72
w: * i,|po-|pu- lo _ _|_ _ _ _ _|* * * * De-|i, De- *|i.|
V:3
 z8 | z8 | z8 | z8 | G,6 C,2 | G,4 A,4 | G,4 C,4 | F,4 F,4 | C,4 C4 | B,2 C3 B,A,G, | F,4 F,3 E, | %11
w: ||||San- cte|Mi- cha-|el ar-|chan- ge-|le Do-|mi- ni _ _ _|no- stri _|
 C,4 G,4 |"^b" A,4 B,4 |"^-natural" C6 B,2 | A,2 G,2 F,4 | !fermata!C,8 | z4 E,4 | D,4 D,4 | E,8 | %19
w: _ Ie-|su Chri-|||sti.|Ve-|ni, ve-|ni|
 z2 C,2 E,2 F,2 | G,F,G,A, B,C D2- | DC C4 B,2 | C8 | z2 C,2 E,2 F,2 | G,6 F,2 | A,4 G,4 | z4 C,4 | %27
w: in ad- iu-|to- * * * * * *|* * * ri-|um|po- pu- lo|De- *|* i,|De-|
 F,8 | C,4 C4- | C2 B,A, B,4 | C8 | z4 D,4 | E,6 F,2 | G,4 A,4 | E,8 | z8 | z4 D,4 | A,6 G,2 | %38
w: i,|De- *||i,|glo-|ri- o-|sus e-|nim||ap-|pa- ru-|
 F,2 E,2 D,4 | C,8 | z2 G,4 F,2 | A,4 G,4 | z8 | z4 D,4 | A,6 G,2 | F,2 E,2 D,4 | C,8 | %47
w: i- * *|sti|in con-|spe- ctu||con-|spe- ctu|Do- * mi-|ni,|
 z2 G,4 F,2 | A,4 G,4 | z4 E,4 | A,6 G,2 | F,2 E,2 D,4 | C,2 C,2 E,3 F, | G,3 A, F,4 | E,8 | %55
w: Do- *|mi- ni,|pro-|pte- re-|a de- co-|re in du- *|* * it|te,|
 z2 A,2 A,2 A,2 | A,2 E,2 G,2 F,2 | E,8 | z8 | z8 | z4 E,4 | F,8 | E,8 | z2 C,2 E,2 F,2 | %64
w: ve- ni in|ad- iu- to- ri-|um|||po-|pu-|lo,|po- pu- lo|
 G,F,G,A, B,C D2- | DC C4 B,2 | C8 | z2 C,2 E,2 F,2 | G,6 F,2 | A,4 G,4 | C,8- | C,8 |] %72
w: De- * * * * * *||i,|po- pu- lo|De- *||i.|_|

